snx/SNX.svg

<svg width="480" height="480" viewBox="0 0 480 480" fill="none" xmlns="http://www.w3.org/2000/svg">
<circle cx="240" cy="240" r="240" fill="url(#SNX_paint0_linear)"/>
<mask id="mask0" style="mask-type:alpha" maskUnits="userSpaceOnUse" x="0" y="0" width="480" height="480">
<circle cx="240" cy="240" r="240" fill="url(#SNX_paint1_linear)"/>
</mask>
<g mask="url(#mask0)">
<path d="M160.933 180.329C158.794 177.881 156.16 176.654 153.025 176.654H88.9209C88.3516 176.654 87.8857 176.474 87.5349 176.114C87.1783 175.759 87 175.358 87 174.928V131.727C87 131.296 87.1783 130.901 87.5349 130.541C87.8857 130.18 88.3516 130 88.9209 130H156.66C173.753 130 188.5 136.988 200.894 150.952L217.348 171.038L185.296 210.135L160.933 180.329ZM279.319 150.737C291.713 136.912 306.529 130 323.765 130H391.292C391.861 130 392.287 130.145 392.574 130.43C392.856 130.721 393 131.151 393 131.727V174.928C393 175.358 392.856 175.759 392.574 176.114C392.287 176.474 391.861 176.654 391.292 176.654H327.187C324.053 176.654 321.419 177.881 319.279 180.329L272.055 237.785L319.492 295.671C321.632 297.979 324.191 299.13 327.187 299.13H391.292C391.861 299.13 392.287 299.311 392.574 299.671C392.856 300.032 393 300.502 393 301.072V344.273C393 344.704 392.856 345.105 392.574 345.459C392.287 345.82 391.861 346 391.292 346H323.765C306.529 346 291.782 339.018 279.532 325.048L240.216 277.097L200.894 325.048C188.5 339.018 173.684 346 156.447 346H88.9209C88.3516 346 87.9202 345.82 87.6384 345.459C87.3508 345.099 87.2128 344.634 87.2128 344.052V300.851C87.2128 300.421 87.3508 300.026 87.6384 299.665C87.9202 299.305 88.3516 299.125 88.9209 299.125H153.025C156.016 299.125 158.65 297.904 160.933 295.45L207.301 238.86L279.319 150.737Z" fill="#00D1FF"/>
</g>
<defs>
<linearGradient id="SNX_paint0_linear" x1="240" y1="0" x2="240" y2="701.818" gradientUnits="userSpaceOnUse">
<stop stop-color="#08021E"/>
<stop offset="1" stop-color="#1F0777"/>
</linearGradient>
<linearGradient id="SNX_paint1_linear" x1="240" y1="0" x2="240" y2="701.818" gradientUnits="userSpaceOnUse">
<stop stop-color="#08021E"/>
<stop offset="1" stop-color="#1F0777"/>
</linearGradient>
</defs>
</svg>

<svg width="480" height="480" viewBox="0 0 480 480" fill="none" xmlns="http://www.w3.org/2000/svg"><circle cx="240" cy="240" r="240" fill="url(#SNX_paint0_linear)"/><mask id="mask0" style="mask-type:alpha" maskUnits="userSpaceOnUse" x="0" y="0" width="480" height="480"><circle cx="240" cy="240" r="240" fill="url(#SNX_paint1_linear)"/></mask><g mask="url(#mask0)"><path d="M160.933 180.329c-2.139-2.448-4.773-3.675-7.908-3.675H88.921c-.57 0-1.035-.18-1.386-.54-.357-.355-.535-.756-.535-1.186v-43.201c0-.431.178-.826.535-1.186.35-.361.817-.541 1.386-.541h67.739c17.093 0 31.84 6.988 44.234 20.952l16.454 20.086-32.052 39.097-24.363-29.806zm118.386-29.592C291.713 136.912 306.529 130 323.765 130h67.527c.569 0 .995.145 1.282.43.282.291.426.721.426 1.297v43.201c0 .43-.144.831-.426 1.186-.287.36-.713.54-1.282.54h-64.105c-3.134 0-5.768 1.227-7.908 3.675l-47.224 57.456 47.437 57.886c2.14 2.308 4.699 3.459 7.695 3.459h64.105c.569 0 .995.181 1.282.541.282.361.426.831.426 1.401v43.201c0 .431-.144.832-.426 1.186-.287.361-.713.541-1.282.541h-67.527c-17.236 0-31.983-6.982-44.233-20.952l-39.316-47.951-39.322 47.951C188.5 339.018 173.684 346 156.447 346H88.921c-.57 0-1-.18-1.283-.541-.287-.36-.425-.825-.425-1.407v-43.201c0-.43.138-.825.425-1.186.282-.36.714-.54 1.283-.54h64.104c2.991 0 5.625-1.221 7.908-3.675l46.368-56.59 72.018-88.123z" fill="#00D1FF"/></g><defs><linearGradient id="SNX_paint0_linear" x1="240" y1="0" x2="240" y2="701.818" gradientUnits="userSpaceOnUse"><stop stop-color="#08021E"/><stop offset="1" stop-color="#1F0777"/></linearGradient><linearGradient id="SNX_paint1_linear" x1="240" y1="0" x2="240" y2="701.818" gradientUnits="userSpaceOnUse"><stop stop-color="#08021E"/><stop offset="1" stop-color="#1F0777"/></linearGradient></defs></svg>
